src/assets/duotone/Maximize.svg

<?xml version="1.0" encoding="UTF-8"?>
<svg width="24" height="24" viewBox="0 0 24 24" xmlns="http://www.w3.org/2000/svg">
 <path d="M16.19 2H7.81C4.17 2 2 4.17 2 7.81V16.18C2 19.83 4.17 22 7.81 22H16.18C19.82 22 21.99 19.83 21.99 16.19V7.81C22 4.17 19.83 2 16.19 2Z" opacity=".4"/>
 <path d="m18 9.25c-0.41 0-0.75 0.34-0.75 0.75v1.25h-4.5v-4.5h1.25c0.41 0 0.75-0.34 0.75-0.75s-0.34-0.75-0.75-0.75h-4c-0.41 0-0.75 0.34-0.75 0.75s0.34 0.75 0.75 0.75h1.25v4.5h-4.5v-1.25c0-0.41-0.34-0.75-0.75-0.75s-0.75 0.34-0.75 0.75v4c0 0.41 0.34 0.75 0.75 0.75s0.75-0.34 0.75-0.75v-1.25h4.5v4.5h-1.25c-0.41 0-0.75 0.34-0.75 0.75s0.34 0.75 0.75 0.75h4c0.41 0 0.75-0.34 0.75-0.75s-0.34-0.75-0.75-0.75h-1.25v-4.5h4.5v1.25c0 0.41 0.34 0.75 0.75 0.75s0.75-0.34 0.75-0.75v-4c0-0.41-0.34-0.75-0.75-0.75z"/>
</svg>

<svg width="24" height="24" viewBox="0 0 24 24"  xmlns="http://www.w3.org/2000/svg">
<path opacity="0.4" d="M16.19 2H7.81C4.17 2 2 4.17 2 7.81V16.18C2 19.83 4.17 22 7.81 22H16.18C19.82 22 21.99 19.83 21.99 16.19V7.81C22 4.17 19.83 2 16.19 2Z" />
<path d="M18 9.25C17.59 9.25 17.25 9.59 17.25 10V11.25H12.75V6.75H14C14.41 6.75 14.75 6.41 14.75 6C14.75 5.59 14.41 5.25 14 5.25H10C9.59 5.25 9.25 5.59 9.25 6C9.25 6.41 9.59 6.75 10 6.75H11.25V11.25H6.75V10C6.75 9.59 6.41 9.25 6 9.25C5.59 9.25 5.25 9.59 5.25 10V14C5.25 14.41 5.59 14.75 6 14.75C6.41 14.75 6.75 14.41 6.75 14V12.75H11.25V17.25H10C9.59 17.25 9.25 17.59 9.25 18C9.25 18.41 9.59 18.75 10 18.75H14C14.41 18.75 14.75 18.41 14.75 18C14.75 17.59 14.41 17.25 14 17.25H12.75V12.75H17.25V14C17.25 14.41 17.59 14.75 18 14.75C18.41 14.75 18.75 14.41 18.75 14V10C18.75 9.59 18.41 9.25 18 9.25Z" />
</svg>
